X:1
T:Title
%%score 1 2 3 4
L:1/8
Q:1/4=126
M:6/8
K:G
V:1 treble nm="Church Organ, Church Organ"
V:2 treble nm="French Horn, French Horn"
V:3 bass nm="Trombone, Trombone"
V:4 bass nm="Tuba, Tuba"
V:1
 G d2 d d2 | G d2 d d2 | G e2 B d2 | GAG A G2 | c B2 A G2 | BAG F E2 | FG>A BAG | F E2- E/ z/ F2- | %8
w: By~Richard~R.~Terry * * *||||||||
 FG>A BAG | F G2- G G2 |] %10
w: ||
V:2
 GF>E F G2 | GF>E F G2 | G G2 G F2 | EFE F G2 | E ^D2 F E2 | E ^D2 D E2 | EE>E E ^D2 | %7
w: The~ old~ * year~ now~|a way~ * is~ fled,~|The~ new~ year~ it~|is~ en * ter ed;~|Then~ let~ us~ now~|our~ sin~ down~ tread,~|And~ joy ful ly~ all~|
 ^D E2- E/ z/ =D2- | DD>F G E2 | D D2- D D2 |] %10
w: ap pear.~ * And~|* joy ful ly~ all~|ap pear.~ * *|
V:3
 G,A,>G, A, B,2 | A,A,>G, A, B,2 | B, B,2 B, B,2 | B, C2 C B,2 | A, F,2 B, B,2 | G,F,G, A, G,2 | %6
w: The~ old~ * year~ now~|a way~ * is~ fled,~|The~ new~ year~ it~|is~ en ter ed;~|Then~ let~ us~ all~|our~ sins~ * down~ tread,~|
 CB,>A, G,F,G, | A, G,2- G,/ z/ A,2- | A,D>C B,CB, | A, B,2- B, B,2 |] %10
w: And~ joy ful ly~ all~ *|ap pear.~ * *|||
V:4
 G, D,2 D, G,2 | G, D,2 D, G,2 | G, E,2 E, B,,2 | E, D,2 D, E,2 | A,, B,,2 ^D, E,2 | %5
 E, B,,2 B,, C,2 | A,,B,,>B,, B,, B,,2 | B,, C,2- C,/ z/ C,2- | C,B,,>A,, G,, C,2 | %9
 D, G,,2- G,, G,,2 |] %10

